packages/ui/public/icons/profile-calendar-icon.svg

<svg width="18" height="18" viewBox="0 0 18 18" fill="none" xmlns="http://www.w3.org/2000/svg">
<path opacity="0.4" d="M13.5 15.75V11.25M11.25 13.5H15.75" stroke="#BF7AF0" stroke-width="1.5" stroke-linecap="round" stroke-linejoin="round"/>
<path d="M15.75 8.625V6.6C15.75 5.33988 15.75 4.70982 15.5048 4.22852C15.2891 3.80515 14.9449 3.46095 14.5215 3.24523C14.0401 3 13.4102 3 12.15 3H5.85C4.58988 3 3.95982 3 3.47852 3.24523C3.05516 3.46095 2.71095 3.80515 2.49524 4.22852C2.25 4.70982 2.25 5.33988 2.25 6.6V12.9C2.25 14.1601 2.25 14.7901 2.49524 15.2715C2.71095 15.6949 3.05516 16.039 3.47852 16.2547C3.95982 16.5 4.58988 16.5 5.85 16.5H9.375M15.75 7.5H2.25M12 1.5V4.5M6 1.5V4.5" stroke="#BF7AF0" stroke-width="1.5" stroke-linecap="round" stroke-linejoin="round"/>
</svg>

<svg width="18" height="18" fill="none" xmlns="http://www.w3.org/2000/svg"><path opacity=".4" d="M13.5 15.75v-4.5m-2.25 2.25h4.5" stroke="#BF7AF0" stroke-width="1.5" stroke-linecap="round" stroke-linejoin="round"/><path d="M15.75 8.625V6.6c0-1.26 0-1.89-.245-2.371a2.25 2.25 0 0 0-.984-.984C14.041 3 13.412 3 12.15 3h-6.3c-1.26 0-1.89 0-2.371.245a2.25 2.25 0 0 0-.984.984c-.245.48-.245 1.11-.245 2.371v6.3c0 1.26 0 1.89.245 2.371.216.424.56.768.984.984.48.245 1.11.245 2.371.245h3.525m6.375-9H2.25m9.75-6v3m-6-3v3" stroke="#BF7AF0" stroke-width="1.5" stroke-linecap="round" stroke-linejoin="round"/></svg>
